Obsidian/actions/24s/fcitx-chewing.svg

<svg height="24" width="24" xmlns="http://www.w3.org/2000/svg"><path d="m2 0c-1.108 0-2 .892-2 2v12c0 1.108.892 2 2 2h12c1.108 0 2-.892 2-2v-12c0-1.108-.892-2-2-2zm0 2h6v1h-2v3h1.5.5l-.4004-.3008s1.4004-1.9492 1.4004-3.6992h1c0 .7087-.1654 1.3887-.3828 2h1.3828v-2h1v2h2v1h-2v2h2v1h-5v-1h2v-2h-1.8027c-.3987.7896-.7969 1.3008-.7969 1.3008l-.4004-.3008v8h-6v-8h1v-3h-1zm2 1v3h1v-3zm0 4v3h-1v1h3v1h-3v1h4v-6h-1v3h-1v-3zm5 2h5v5h-5zm1 1v3h3v-3z" fill="#bebebe" transform="translate(4 4)"/></svg>

<svg xmlns="http://www.w3.org/2000/svg" width="24" height="24" version="1.1">
 <defs>
  <style id="current-color-scheme" type="text/css">
   .ColorScheme-Text { color:#bebebe; } .ColorScheme-Highlight { color:#4285f4; }
  </style>
 </defs>
 <g transform="matrix(1,0,0,1,4,4)">
  <path class="ColorScheme-Text" d="M 2,0 C 0.892,0 0,0.892 0,2 V 14 C 0,15.108 0.892,16 2,16 H 14 C 15.108,16 16,15.108 16,14 V 2 C 16,0.892 15.108,0 14,0 Z M 2,2 H 8 V 3 H 6 V 6 H 7.5 8 L 7.5996,5.6992 C 7.5996,5.6992 9,3.75 9,2 H 10 C 10,2.7087 9.8346,3.3887 9.6172,4 H 11 V 2 H 12 V 4 H 14 V 5 H 12 V 7 H 14 V 8 H 9 V 7 H 11 V 5 H 9.1973 C 8.7986,5.7896 8.4004,6.3008 8.4004,6.3008 L 8,6 V 14 H 2 V 6 H 3 V 3 H 2 Z M 4,3 V 6 H 5 V 3 Z M 4,7 V 10 H 3 V 11 H 6 V 12 H 3 V 13 H 7 V 7 H 6 V 10 H 5 V 7 Z M 9,9 H 14 V 14 H 9 Z M 10,10 V 13 H 13 V 10 Z" style="fill:currentColor"/>
 </g>
</svg>
